icons/booqable.svg

<?xml version="1.0" encoding="UTF-8"?>
<svg width="256px" height="129px" viewBox="0 0 256 129" version="1.1" xmlns="http://www.w3.org/2000/svg" xmlns:xlink="http://www.w3.org/1999/xlink" preserveAspectRatio="xMidYMid">
    <defs>
        <linearGradient x1="69.7893528%" y1="17.3206796%" x2="35.5788354%" y2="135.696214%" id="linearGradient-1">
            <stop stop-color="#21D4FD" offset="1.375847%"></stop>
            <stop stop-color="#B721FF" offset="99.6%"></stop>
        </linearGradient>
    </defs>
    <g>
				<path d="M255.734588,107.990155 C250.509258,76.0161117 176.608161,20.7769078 149.486209,5.34974272 C143.514403,1.86618932 135.800821,0 127.962826,0 C120.124831,0 112.784486,1.86618932 106.81268,5.34974272 C87.9019616,16.422466 25.9444762,59.7180583 6.1628694,92.9362282 C6.1628694,92.9362282 6.1628694,92.9362282 6.1628694,92.9362282 C3.17696649,98.0371456 1.06195192,103.01365 0.315476195,107.492505 C-0.679824776,113.588723 0.688714059,118.814053 4.29668008,122.91967 C7.28258299,126.278811 11.3881995,128.020587 16.489117,128.020587 C30.4233306,128.020587 50.5781752,114.584024 71.9771461,100.276573 C92.8784665,86.2179466 114.650675,71.7860825 128.087238,71.7860825 C130.948729,71.7860825 134.183457,72.5325583 137.542598,73.6522718 C137.66701,73.6522718 137.791423,73.6522718 137.791423,73.7766845 C142.021452,75.2696359 146.500306,77.3846505 151.476811,80.1217282 C151.974462,80.3705534 152.472112,80.7437913 152.969763,80.9926165 C154.960365,82.1123301 156.950966,83.2320437 158.941568,84.4761699 C166.530738,89.0794369 174.368733,94.4291796 182.206729,99.6545097 C193.030627,106.994854 203.605699,114.086374 213.185471,119.436117 C222.889656,124.785859 231.598539,128.145 238.938884,128.145 C244.288627,128.145 248.643068,126.278811 251.877797,122.670845 C255.36135,118.938466 256.605476,113.961961 255.734588,107.990155 Z" fill="url(#linearGradient-1)"></path>
				<path d="M137.542598,73.7766845 C134.059044,72.5325583 130.824316,71.9104951 128.087238,71.9104951 C114.650675,71.9104951 93.0028791,86.3423592 71.9771461,100.400985 C50.5781752,114.584024 30.4233306,128.145 16.489117,128.145 C11.3881995,128.145 7.28258299,126.403223 4.29668008,123.044083 C0.688714059,118.938466 -0.679824776,113.713136 0.315476195,107.616917 C1.06195192,103.138063 3.05255387,98.1615583 6.1628694,93.0606408 C6.1628694,93.0606408 6.1628694,93.0606408 6.1628694,93.0606408 C53.1908403,48.645335 108.056806,61.459835 137.542598,73.7766845 Z" fill="#1D1D1B" opacity="0.4"></path>
    </g>
</svg>

<svg xmlns="http://www.w3.org/2000/svg" viewBox="0 0 256.002 128.145">
  <defs>
    <linearGradient id="a" x1="126.404" x2="64.441" y1="31.372" y2="245.777" gradientTransform="scale(1.41342 .7075)" gradientUnits="userSpaceOnUse">
      <stop offset="1.376%" stop-color="#21D4FD"/>
      <stop offset="99.6%" stop-color="#B721FF"/>
    </linearGradient>
  </defs>
  <path fill="url(#a)" d="M255.735 107.99c-5.226-31.974-79.127-87.213-106.249-102.64C143.514 1.866 135.801 0 127.963 0c-7.838 0-15.179 1.866-21.15 5.35C87.902 16.422 25.944 59.718 6.163 92.936c-2.986 5.101-5.101 10.078-5.848 14.556-.995 6.097.374 11.322 3.982 15.428 2.986 3.359 7.091 5.1 12.192 5.1 13.934 0 34.09-13.436 55.488-27.743 20.901-14.06 42.674-28.49 56.11-28.49 2.862 0 6.096.746 9.456 1.865.124 0 .248 0 .248.125 4.23 1.493 8.71 3.608 13.686 6.345.497.249.995.622 1.493.87 1.99 1.12 3.981 2.24 5.972 3.484 7.589 4.603 15.427 9.953 23.265 15.179 10.824 7.34 21.399 14.431 30.978 19.781 9.705 5.35 18.414 8.709 25.754 8.709 5.35 0 9.704-1.866 12.939-5.474 3.483-3.733 4.727-8.709 3.857-14.68z" style="fill:url(#a)"/>
  <path fill="#1d1d1b" d="M137.543 73.777c-3.484-1.244-6.719-1.867-9.456-1.867-13.436 0-35.084 14.432-56.11 28.491-21.399 14.183-41.554 27.744-55.488 27.744-5.1 0-9.206-1.742-12.192-5.1-3.608-4.107-4.977-9.332-3.982-15.428.747-4.479 2.738-9.455 5.848-14.556C53.19 48.645 108.057 61.46 137.543 73.777z" opacity=".4"/>
</svg>
